components/icon/svg/24/navigation_cancel-filled.svg

<?xml version="1.0" encoding="UTF-8"?>
<svg width="24px" height="24px" viewBox="0 0 24 24" version="1.1" xmlns="http://www.w3.org/2000/svg" xmlns:xlink="http://www.w3.org/1999/xlink">
    <!-- Generator: Sketch 64 (93537) - https://sketch.com -->
    <title>ic-db_navigation_cancel-filled_24</title>
    <desc>Created with Sketch.</desc>
    <g id="Symbols:Icon" stroke="none" stroke-width="1" fill="none" fill-rule="evenodd">
        <g id="24dp-Icon/Navigation/Cancel-Filled" fill="#282D37">
            <path d="M12,2 C17.5312,2 22,6.4688 22,12 C22,17.5312 17.5312,22 12,22 C6.4688,22 2,17.5312 2,12 C2,6.4688 6.4688,2 12,2 Z M15.5,7.5 C15.25,7.5 15.0312,7.5938 14.7812,7.8125 L14.7812,7.8125 L12,10.5938 L9.2188,7.7812 C9.0312,7.5938 8.7188,7.5 8.5,7.5 C8.0312,7.5 7.5,7.875 7.5,8.5 C7.5,8.7188 7.5625,8.9688 7.7812,9.2188 L7.7812,9.2188 L10.5938,12 L7.7812,14.8125 C7.5938,15 7.5,15.2812 7.5,15.5 C7.5,15.9688 7.875,16.5 8.5,16.5 C8.7188,16.5 8.9688,16.4062 9.1875,16.2188 L9.1875,16.2188 L12,13.4062 L14.7812,16.2188 C14.9688,16.4062 15.2812,16.5 15.5,16.5 C15.9688,16.5 16.5,16.125 16.5,15.5 C16.5,15.2812 16.4375,15.0312 16.2188,14.8125 L16.2188,14.8125 L13.4062,12 L16.1875,9.2188 C16.4062,9 16.5,8.75 16.5,8.5 C16.5,7.9688 16.0625,7.5 15.5,7.5 Z" id="🎨-Color"></path>
        </g>
    </g>
</svg>

<svg width="24" height="24" xmlns="http://www.w3.org/2000/svg"><path d="M12 2a9.99 9.99 0 0110 10 9.99 9.99 0 01-10 10A9.99 9.99 0 012 12 9.99 9.99 0 0112 2zm3.5 5.5c-.25 0-.469.094-.719.313L12 10.592 9.219 7.782c-.188-.187-.5-.281-.719-.281-.469 0-1 .375-1 1 0 .219.063.469.281.719L10.594 12 7.78 14.813a1.026 1.026 0 00-.281.687c0 .469.375 1 1 1 .219 0 .469-.094.688-.281L12 13.406l2.781 2.813c.188.187.5.281.719.281.469 0 1-.375 1-1a.94.94 0 00-.281-.688L13.406 12l2.781-2.781A.999.999 0 0016.5 8.5c0-.531-.438-1-1-1z" fill="#282D37" fill-rule="evenodd"/></svg>
